KINDER
CUT[RUMME RUMME ROSENKRANZ]
REG[Europa, Mitteleuropa, Deutschland, Siegen]
KEY[K2065  08  F 2/4]
MEL[  5566  553
    3  5566  5_3
    3  5566  5_3
    3  5566  553_
    5566  553_  +1__ //] >>
FCT[Kinder - Lied, Reigen, Tanz - Spiel]
